!!!OTL: EIN BLUM STEHT AUF DER HEIDE
!!!ARE: Europa, Mitteleuropa, Deutschland
!!!SCT: E2011
!!!YEM: Copyright 1995, estate of Helmut Schaffrath.
**kern
*ICvox
*Ivox
*M6/4
*k[f#]
*G:
{4g
=1
2b
4b
2cc
4b
=2
2.dd
2cc}
{4b
=3
2a
4g
2g
4a
=4
2.b
2a}
{4g
=5
2b
4b
2cc
4b
=6
2.dd
2cc}
{4b
=7
2a
4g
2g
4a
=8
2.b
2a}
{4dd
=9
2dd
4cc
2b
4a
=10
2.g
2d}
{4d
=11
2g
4f#
2g
4a
=12
2.b
2a}
{4g
=13
2b
4b
2cc
4dd
=14
2.dd
2cc}
{4b
=15
2cc
4b
2a
4g
=16
2.f#
2d}
{4d
=17
2g
4a
2b
4cc
=18
2b
4a
2g}
==
!!!AGN: geistlich, Gebet, Jesus - Lied
!!!ONB: ESAC (Essen Associative Code) Database: ERK3
!!!AMT: compound duple
!!!AIN: vox
!!!EED: Helmut Schaffrath
!!!EEV: 1.0
*-
